;FLAVOR:Marlin
;TIME:879
;Filament used: 0.771345m
;Layer height: 0.2
;MINX:67.03
;MINY:102.331
;MINZ:0.3
;MAXX:127.827
;MAXY:151.685
;MAXZ:5.1
;Generated with Cura_SteamEngine 5.2.2
M140 S55
M105
M190 S55
M104 S185
M105
M109 S185
M82 ;absolute extrusion mode
G21 ;metric values
G90 ;absolute positioning
M82 ;set extruder to absolute mode
M107 ;start with the fan off
G28 X0 Y0 ;move X/Y to min endstops
G28 Z0 ;move Z to min endstops
G29
G1 Z15.0 F9000 ;move the platform down 15mm
G92 E0 ;zero the extruded length
G1 F200 E3 ;extrude 3mm of feed stock
G92 E0 ;zero the extruded length again
G1 F9000
;Put printing message on LCD screen
M117 Printing...
G92 E0
G92 E0
G1 F1500 E-6.5
;LAYER_COUNT:25
;LAYER:0
M107
G0 F3600 X94.571 Y128.932 Z0.3
;TYPE:SKIRT
G1 F1500 E0
G1 F1650 X94.988 Y128.669 E0.0246
G1 X95.744 Y128.322 E0.0661
G1 X96.22 Y128.208 E0.09052
G1 X96.676 Y128.173 E0.11333
G1 X103.884 Y128.173 E0.47294
G1 X104.372 Y128.213 E0.49737
G1 X104.847 Y128.332 E0.5218
G1 X105.296 Y128.526 E0.5462
G1 X105.881 Y128.908 E0.58106
G1 X106.259 Y129.219 E0.60548
G1 X106.58 Y129.588 E0.62988
G1 X106.838 Y130.004 E0.6543
G1 X107.108 Y130.704 E0.69173
G1 X107.241 Y131.424 E0.72826
G1 X107.241 Y138.781 E1.0953
G1 X107.201 Y139.269 E1.11973
G1 X107.082 Y139.744 E1.14416
G1 X106.814 Y140.323 E1.17599
G1 X106.384 Y140.963 E1.21446
G1 X106.038 Y141.309 E1.23887
G1 X105.641 Y141.595 E1.26328
G1 X105.125 Y141.859 E1.2922
G1 X104.67 Y142.038 E1.31659
G1 X104.074 Y142.165 E1.347
G1 X96.566 Y142.165 E1.72157
G1 X96.078 Y142.125 E1.746
G1 X95.603 Y142.006 E1.77043
G1 X95.154 Y141.812 E1.79483
G1 X94.742 Y141.547 E1.81927
G1 X94.284 Y141.141 E1.84981
G1 X93.953 Y140.781 E1.87421
G1 X93.684 Y140.372 E1.89863
G1 X93.426 Y139.761 E1.93172
G1 X93.297 Y139.289 E1.95613
G1 X93.245 Y138.734 E1.98394
G1 X93.245 Y131.603 E2.33971
G1 X93.285 Y131.115 E2.36413
G1 X93.404 Y130.64 E2.38856
G1 X93.654 Y130.062 E2.41998
G1 X93.896 Y129.637 E2.44438
G1 X94.205 Y129.257 E2.46882
G1 X94.571 Y128.932 E2.49324
G0 F3600 X94.888 Y129.196
G1 F1650 X95.477 Y128.866 E2.52692
G1 X95.898 Y128.692 E2.54965
G1 X96.438 Y128.573 E2.57723
G1 X103.884 Y128.573 E2.94872
G1 X104.338 Y128.613 E2.97145
G1 X104.778 Y128.731 E2.99418
G1 X105.369 Y129.039 E3.02743
G1 X106.002 Y129.528 E3.06734
G1 X106.295 Y129.877 E3.09007
G1 X106.523 Y130.271 E3.11278
G1 X106.751 Y130.966 E3.14927
G1 X106.841 Y131.471 E3.17487
G1 X106.841 Y138.781 E3.53956
G1 X106.801 Y139.235 E3.5623
G1 X106.683 Y139.675 E3.58503
G1 X106.471 Y140.117 E3.60949
G1 X106.059 Y140.728 E3.64625
G1 X105.731 Y141.045 E3.66901
G1 X105.239 Y141.358 E3.6981
G1 X104.524 Y141.664 E3.7369
G1 X104.005 Y141.765 E3.76328
G1 X96.566 Y141.765 E4.13441
G1 X96.112 Y141.725 E4.15715
G1 X95.672 Y141.607 E4.17988
G1 X95.26 Y141.413 E4.2026
G1 X94.802 Y141.075 E4.231
G1 X94.249 Y140.51 E4.27044
G1 X94.006 Y140.125 E4.29315
G1 X93.802 Y139.624 E4.32014
G1 X93.684 Y139.184 E4.34287
G1 X93.645 Y138.734 E4.3654
G1 X93.645 Y131.603 E4.72117
G1 X93.685 Y131.149 E4.74391
G1 X93.889 Y130.503 E4.77771
G1 X94.244 Y129.837 E4.81536
G1 X94.538 Y129.488 E4.83812
G1 X94.888 Y129.196 E4.86086
G0 F3600 X95.357 Y129.379
G1 F1650 X96.05 Y129.064 E4.89884
G1 X96.518 Y128.973 E4.92263
G1 X103.884 Y128.973 E5.29012
G1 X104.301 Y129.013 E5.31102
G1 X104.703 Y129.131 E5.33192
G1 X105.141 Y129.367 E5.35674
G1 X105.743 Y129.835 E5.39479
G1 X106.006 Y130.162 E5.41572
G1 X106.201 Y130.533 E5.43663
G1 X106.365 Y131.07 E5.46464
G1 X106.441 Y131.644 E5.49353
G1 X106.441 Y138.781 E5.8496
G1 X106.401 Y139.198 E5.8705
G1 X106.283 Y139.6 E5.8914
G1 X105.983 Y140.154 E5.92283
G1 X105.735 Y140.491 E5.94371
G1 X105.426 Y140.775 E5.96464
G1 X105.063 Y140.999 E5.98592
G1 X104.381 Y141.288 E6.02288
G1 X103.806 Y141.365 E6.05182
G1 X96.566 Y141.365 E6.41303
G1 X96.149 Y141.325 E6.43393
G1 X95.747 Y141.207 E6.45483
G1 X95.375 Y141.014 E6.47574
G1 X94.827 Y140.554 E6.51143
G1 X94.547 Y140.241 E6.53238
G1 X94.252 Y139.69 E6.56357
G1 X94.073 Y139.082 E6.59519
G1 X94.045 Y138.734 E6.6126
G1 X94.045 Y131.603 E6.96837
G1 X94.085 Y131.186 E6.98927
G1 X94.252 Y130.672 E7.01623
G1 X94.591 Y130.039 E7.05206
G1 X94.868 Y129.725 E7.07295
G1 X95.357 Y129.379 E7.10283
G0 F3600 X95.542 Y129.734
G1 F1650 X96.199 Y129.437 E7.13881
G1 X96.676 Y129.373 E7.16282
G1 X103.884 Y129.373 E7.52242
G1 X104.261 Y129.413 E7.54134
G1 X104.621 Y129.531 E7.56024
G1 X105.195 Y129.893 E7.5941
G1 X105.482 Y130.141 E7.61302
G1 X105.71 Y130.443 E7.6319
G1 X105.905 Y130.901 E7.65673
G1 X106.041 Y131.644 E7.69442
G1 X106.041 Y138.781 E8.05048
G1 X106.001 Y139.158 E8.0694
G1 X105.883 Y139.518 E8.0883
G1 X105.64 Y139.948 E8.11294
G1 X105.412 Y140.251 E8.13186
G1 X105.126 Y140.499 E8.15074
G1 X104.598 Y140.782 E8.18063
G1 X104.242 Y140.911 E8.19952
G1 X103.806 Y140.965 E8.22144
G1 X96.566 Y140.965 E8.58265
G1 X96.189 Y140.925 E8.60156
G1 X95.829 Y140.807 E8.62046
G1 X95.502 Y140.617 E8.63933
G1 X95.098 Y140.26 E8.66623
G1 X94.848 Y139.975 E8.68514
G1 X94.628 Y139.553 E8.70888
G1 X94.445 Y138.925 E8.74152
G1 X94.445 Y131.603 E9.10681
G1 X94.485 Y131.226 E9.12573
G1 X94.614 Y130.841 E9.14598
G1 X94.937 Y130.245 E9.1798
G1 X95.196 Y129.968 E9.19872
G1 X95.542 Y129.734 E9.21956
G0 F3600 X95.519 Y130.221
G1 F1650 X96.03 Y129.931 E9.24888
G1 X96.343 Y129.813 E9.26556
G1 X96.676 Y129.773 E9.2823
G1 X103.884 Y129.773 E9.64191
G1 X104.216 Y129.813 E9.65859
G1 X104.528 Y129.93 E9.67521
G1 X104.967 Y130.221 E9.70149
G1 X105.216 Y130.443 E9.71813
G1 X105.406 Y130.718 E9.73481
G1 X105.593 Y131.279 E9.76431
G1 X105.641 Y131.644 E9.78268
G1 X105.641 Y138.781 E10.13875
G1 X105.601 Y139.113 E10.15543
G1 X105.442 Y139.501 E10.17635
G1 X105.092 Y140.007 E10.20704
G1 X104.712 Y140.28 E10.23039
G1 X104.106 Y140.532 E10.26313
G1 X103.806 Y140.565 E10.27819
G1 X96.566 Y140.565 E10.63939
G1 X96.234 Y140.525 E10.65608
G1 X95.922 Y140.408 E10.6727
G1 X95.616 Y140.194 E10.69133
G1 X95.153 Y139.711 E10.72471
G1 X94.93 Y139.213 E10.75193
G1 X94.845 Y138.734 E10.7762
G1 X94.845 Y131.603 E11.13197
G1 X94.885 Y131.271 E11.14865
G1 X95.103 Y130.739 E11.17734
G1 X95.28 Y130.455 E11.19403
G1 X95.519 Y130.221 E11.21072
G0 F3600 X95.911 Y130.444
G1 F1650 X96.535 Y130.173 E11.24466
G1 X103.884 Y130.173 E11.6113
G1 X104.163 Y130.213 E11.62536
G1 X104.455 Y130.352 E11.6415
G1 X104.945 Y130.742 E11.67274
G1 X105.132 Y131.109 E11.69329
G1 X105.241 Y131.644 E11.72053
G1 X105.241 Y138.781 E12.0766
G1 X105.201 Y139.06 E12.09066
G1 X104.954 Y139.537 E12.11746
G1 X104.776 Y139.756 E12.13154
G1 X104.246 Y140.063 E12.1621
G1 X103.931 Y140.165 E12.17862
G1 X96.566 Y140.165 E12.54606
G1 X96.287 Y140.125 E12.56012
G1 X96.03 Y140.009 E12.57419
G1 X95.641 Y139.672 E12.59986
G1 X95.462 Y139.453 E12.61397
G1 X95.305 Y139.076 E12.63435
G1 X95.245 Y138.734 E12.65167
G1 X95.245 Y131.603 E13.00744
G1 X95.285 Y131.324 E13.0215
G1 X95.466 Y130.908 E13.04413
G1 X95.62 Y130.672 E13.05819
G1 X95.911 Y130.444 E13.07664
G0 F3600 X95.955 Y130.9
G1 F1650 X96.399 Y130.641 E13.10228
G1 X96.676 Y130.573 E13.11651
G1 X103.884 Y130.573 E13.47612
G1 X104.099 Y130.613 E13.48703
G1 X104.51 Y130.878 E13.51143
G1 X104.663 Y131.033 E13.52229
G1 X104.746 Y131.214 E13.53223
G1 X104.841 Y131.644 E13.5542
G1 X104.841 Y138.781 E13.91026
G1 X104.756 Y139.089 E13.9262
G1 X104.466 Y139.495 E13.9511
G1 X104.07 Y139.704 E13.97344
G1 X103.806 Y139.765 E13.98695
G1 X96.566 Y139.765 E14.34816
G1 X96.351 Y139.725 E14.35907
G1 X96.159 Y139.606 E14.37034
G1 X95.912 Y139.378 E14.38711
G1 X95.755 Y139.142 E14.40125
G1 X95.645 Y138.734 E14.42233
G1 X95.645 Y131.603 E14.7781
G1 X95.701 Y131.349 E14.79108
G1 X95.955 Y130.9 E14.81681
G0 F3600 X96.28 Y131.154
G1 F1650 X96.676 Y130.973 E14.83854
G1 X103.884 Y130.973 E15.19814
G1 X103.998 Y131.009 E15.20411
G1 X104.281 Y131.206 E15.22131
G1 X104.36 Y131.318 E15.22815
G1 X104.441 Y131.644 E15.24491
G1 X104.441 Y138.781 E15.60097
G1 X104.268 Y139.126 E15.62023
G1 X104.184 Y139.203 E15.62591
G1 X103.806 Y139.365 E15.64643
G1 X96.566 Y139.365 E16.00764
G1 X96.43 Y139.312 E16.01492
G1 X96.131 Y139.005 E16.0363
G1 X96.045 Y138.734 E16.05048
G1 X96.045 Y131.603 E16.40625
G1 X96.191 Y131.246 E16.42549
G1 X96.28 Y131.154 E16.43188
G1 F1500 E9.93188
G0 F3600 X95.821 Y130.941
G0 X92.993 Y131.634
G1 F1500 E16.43188
G1 F1650 X93.027 Y132.086 E16.45449
G1 X93.027 Y145.231 E17.1103
G1 X92.987 Y145.719 E17.13473
G1 X92.798 Y146.381 E17.16908
G1 X92.459 Y147.094 E17.20846
G1 X92.167 Y147.487 E17.23289
G1 X92.011 Y147.628 E17.24338
G1 X91.832 Y148.315 E17.2788
G1 X91.65 Y148.77 E17.30325
G1 X91.398 Y149.189 E17.32764
G1 X90.932 Y149.7 E17.36214
G1 X90.253 Y150.238 E17.40536
G1 X89.817 Y150.46 E17.42977
G1 X89.35 Y150.609 E17.45423
G1 X88.68 Y150.685 E17.48787
G1 X86.957 Y150.686 E17.57383
G1 X86.544 Y151.047 E17.6012
G1 X86.125 Y151.301 E17.62564
G1 X85.471 Y151.547 E17.6605
G1 X84.994 Y151.655 E17.6849
G1 X84.572 Y151.685 E17.70601
G1 X75.485 Y151.685 E18.15936
G1 X74.997 Y151.645 E18.18379
G1 X74.379 Y151.482 E18.21568
G1 X73.926 Y151.298 E18.24007
G1 X73.508 Y151.042 E18.26452
G1 X73.102 Y150.686 E18.29146
G1 X71.482 Y150.685 E18.37229
G1 X70.994 Y150.645 E18.39671
G1 X70.334 Y150.456 E18.43097
G1 X69.621 Y150.117 E18.47035
G1 X69.228 Y149.825 E18.49478
G1 X68.822 Y149.39 E18.52447
G1 X68.381 Y148.746 E18.56341
G1 X68.187 Y148.296 E18.58785
G1 X68.055 Y147.655 E18.6205
G1 X67.777 Y147.329 E18.64188
G1 X67.369 Y146.615 E18.68291
G1 X67.179 Y146.164 E18.70732
G1 X67.065 Y145.688 E18.73174
G1 X67.03 Y145.23 E18.75466
G1 X67.03 Y132.139 E19.40777
G1 X67.07 Y131.651 E19.4322
G1 X67.189 Y131.176 E19.45663
G1 X67.46 Y130.556 E19.49039
G1 X67.703 Y130.131 E19.51481
G1 X68.052 Y129.717 E19.54183
G1 X68.213 Y129.111 E19.57311
G1 X68.507 Y128.424 E19.61039
G1 X68.782 Y128.019 E19.63481
G1 X69.142 Y127.644 E19.66075
G1 X69.778 Y127.139 E19.70126
G1 X70.213 Y126.916 E19.72565
G1 X70.679 Y126.766 E19.75007
G1 X71.36 Y126.687 E19.78428
G1 X73.092 Y126.686 E19.87069
G1 X73.415 Y126.416 E19.89169
G1 X73.988 Y126.075 E19.92496
G1 X74.432 Y125.87 E19.94936
G1 X74.904 Y125.739 E19.97379
G1 X75.463 Y125.687 E20.0018
G1 X84.593 Y125.687 E20.4573
G1 X85.081 Y125.727 E20.48173
G1 X85.556 Y125.846 E20.50616
G1 X86.23 Y126.152 E20.54309
G1 X86.648 Y126.408 E20.56754
G1 X86.973 Y126.688 E20.58894
G1 X88.6 Y126.691 E20.67012
G1 X89.088 Y126.732 E20.69455
G1 X89.686 Y126.897 E20.7255
G1 X90.41 Y127.223 E20.76511
G1 X90.809 Y127.506 E20.78952
G1 X91.157 Y127.851 E20.81396
G1 X91.533 Y128.404 E20.84733
G1 X91.873 Y129.138 E20.88768
G1 X91.999 Y129.722 E20.91749
G1 X92.208 Y129.933 E20.93231
G1 X92.576 Y130.484 E20.96536
G1 X92.88 Y131.158 E21.00225
G1 X92.993 Y131.634 E21.02666
G0 F3600 X92.627 Y131.854
G1 F1650 X92.627 Y145.231 E21.69404
G1 X92.587 Y145.685 E21.71678
G1 X92.428 Y146.228 E21.74501
G1 X92.102 Y146.909 E21.78267
G1 X91.824 Y147.27 E21.8054
G1 X91.606 Y147.461 E21.81986
G1 X91.586 Y147.688 E21.83123
G1 X91.449 Y148.198 E21.85758
G1 X91.278 Y148.621 E21.88034
G1 X91.036 Y149.007 E21.90307
G1 X90.67 Y149.398 E21.92979
G1 X90.016 Y149.914 E21.97135
G1 X89.606 Y150.114 E21.99411
G1 X89.168 Y150.238 E22.01682
G1 X88.68 Y150.285 E22.04128
G1 X86.79 Y150.286 E22.13557
G1 X86.283 Y150.742 E22.16959
G1 X85.889 Y150.971 E22.19233
G1 X85.352 Y151.165 E22.22082
G1 X84.807 Y151.285 E22.24866
G1 X75.485 Y151.285 E22.71373
G1 X75.031 Y151.245 E22.73647
G1 X74.499 Y151.101 E22.76397
G1 X74.078 Y150.927 E22.78669
G1 X73.694 Y150.682 E22.80942
G1 X73.268 Y150.286 E22.83844
G1 X71.482 Y150.285 E22.92754
G1 X71.028 Y150.245 E22.95028
G1 X70.487 Y150.086 E22.97841
G1 X69.806 Y149.76 E23.01608
G1 X69.445 Y149.482 E23.03881
G1 X68.963 Y148.915 E23.07594
G1 X68.719 Y148.53 E23.09868
G1 X68.547 Y148.108 E23.12141
G1 X68.437 Y147.463 E23.15406
G1 X68.047 Y147.017 E23.18362
G1 X67.724 Y146.431 E23.217
G1 X67.55 Y146.01 E23.23973
G1 X67.43 Y145.465 E23.26757
G1 X67.43 Y132.139 E23.9324
G1 X67.47 Y131.685 E23.95514
G1 X67.588 Y131.245 E23.97787
G1 X67.821 Y130.726 E24.00625
G1 X68.051 Y130.332 E24.02901
G1 X68.451 Y129.902 E24.05831
G1 X68.471 Y129.682 E24.06933
G1 X68.678 Y129.006 E24.10461
G1 X68.871 Y128.593 E24.12735
G1 X69.134 Y128.221 E24.15008
G1 X69.648 Y127.732 E24.18547
G1 X70.016 Y127.463 E24.20821
G1 X70.425 Y127.262 E24.23095
G1 X70.863 Y127.135 E24.2537
G1 X71.36 Y127.087 E24.27861
G1 X73.263 Y127.086 E24.37355
G1 X73.366 Y126.971 E24.38126
G1 X73.868 Y126.602 E24.41234
G1 X74.599 Y126.235 E24.45315
G1 X75.041 Y126.122 E24.47591
G1 X75.463 Y126.087 E24.49703
G1 X84.593 Y126.087 E24.95253
G1 X85.047 Y126.127 E24.97527
G1 X85.487 Y126.245 E24.998
G1 X86.05 Y126.51 E25.02904
G1 X86.438 Y126.749 E25.05178
G1 X86.805 Y127.088 E25.0767
G1 X88.599 Y127.091 E25.1662
G1 X89.053 Y127.132 E25.18895
G1 X89.54 Y127.269 E25.21419
G1 X90.233 Y127.583 E25.25214
G1 X90.599 Y127.853 E25.27483
G1 X90.913 Y128.184 E25.2976
G1 X91.179 Y128.591 E25.32185
G1 X91.504 Y129.294 E25.36049
G1 X91.615 Y129.901 E25.39128
G1 X91.922 Y130.215 E25.41319
G1 X92.221 Y130.668 E25.44027
G1 X92.509 Y131.311 E25.47542
G1 X92.627 Y131.854 E25.50314
G0 F3600 X92.227 Y131.925
G1 F1650 X92.227 Y145.231 E26.16698
G1 X92.187 Y145.648 E26.18788
G1 X92.059 Y146.075 E26.21012
G1 X91.747 Y146.722 E26.24595
G1 X91.484 Y147.047 E26.26681
G1 X91.223 Y147.269 E26.28391
G1 X91.186 Y147.65 E26.303
G1 X91.067 Y148.081 E26.32531
G1 X90.906 Y148.468 E26.34622
G1 X90.675 Y148.818 E26.36715
G1 X90.122 Y149.345 E26.40526
G1 X89.781 Y149.588 E26.42615
G1 X89.4 Y149.763 E26.44706
G1 X88.899 Y149.885 E26.47279
G1 X86.609 Y149.886 E26.58704
G1 X86.025 Y150.435 E26.62703
G1 X85.658 Y150.637 E26.64793
G1 X85.232 Y150.784 E26.67041
G1 X84.756 Y150.885 E26.69469
G1 X75.485 Y150.885 E27.15722
G1 X75.068 Y150.845 E27.17812
G1 X74.619 Y150.719 E27.20138
G1 X74.233 Y150.556 E27.22229
G1 X73.885 Y150.323 E27.24318
G1 X73.452 Y149.886 E27.27387
G1 X71.483 Y149.885 E27.37211
G1 X71.065 Y149.845 E27.39306
G1 X70.64 Y149.717 E27.4152
G1 X69.993 Y149.405 E27.45104
G1 X69.668 Y149.142 E27.4719
G1 X69.281 Y148.672 E27.50227
G1 X69.06 Y148.317 E27.52313
G1 X68.91 Y147.925 E27.54407
G1 X68.82 Y147.269 E27.57711
G1 X68.575 Y147.045 E27.59367
G1 X68.256 Y146.586 E27.62156
G1 X67.921 Y145.857 E27.66158
G1 X67.83 Y145.389 E27.68537
G1 X67.83 Y132.139 E28.34641
G1 X67.87 Y131.722 E28.36731
G1 X68.039 Y131.202 E28.39459
G1 X68.397 Y130.536 E28.43231
G1 X68.675 Y130.222 E28.45324
G1 X68.833 Y130.103 E28.46311
G1 X68.871 Y129.72 E28.48231
G1 X69.053 Y129.143 E28.51249
G1 X69.234 Y128.765 E28.5334
G1 X69.483 Y128.429 E28.55427
G1 X69.912 Y128.033 E28.58339
G1 X70.252 Y127.788 E28.6043
G1 X70.632 Y127.612 E28.62519
G1 X71.135 Y127.487 E28.65105
G1 X73.439 Y127.486 E28.766
G1 X73.689 Y127.217 E28.78432
G1 X74.064 Y126.95 E28.80729
G1 X74.764 Y126.601 E28.84631
G1 X75.254 Y126.487 E28.87141
G1 X84.593 Y126.487 E29.33733
G1 X85.01 Y126.527 E29.35823
G1 X85.582 Y126.722 E29.38838
G1 X86.225 Y127.09 E29.42534
G1 X86.617 Y127.487 E29.45318
G1 X88.598 Y127.491 E29.55201
G1 X89.015 Y127.532 E29.57292
G1 X89.679 Y127.753 E29.60783
G1 X90.053 Y127.942 E29.62874
G1 X90.384 Y128.198 E29.64961
G1 X90.661 Y128.513 E29.67054
G1 X90.974 Y129.06 E29.70198
G1 X91.133 Y129.448 E29.7229
G1 X91.227 Y130.094 E29.75547
G1 X91.634 Y130.495 E29.78398
G1 X91.865 Y130.852 E29.80519
G1 X92.137 Y131.463 E29.83856
G1 X92.227 Y131.925 E29.86204
G0 F3600 X91.827 Y132.086
G1 F1650 X91.827 Y145.231 E30.51785
G1 X91.787 Y145.608 E30.53676
G1 X91.574 Y146.198 E30.56805
G1 X91.393 Y146.531 E30.58696
G1 X91.146 Y146.818 E30.60585
G1 X90.827 Y147.066 E30.62601
G1 X90.827 Y147.232 E30.6343
G1 X90.748 Y147.755 E30.66068
G1 X90.536 Y148.313 E30.69046
G1 X90.317 Y148.623 E30.7094
G1 X89.86 Y149.043 E30.74037
G1 X89.549 Y149.26 E30.75929
G1 X89.2 Y149.408 E30.7782
G1 X88.679 Y149.485 E30.80447
G1 X86.417 Y149.486 E30.91733
G1 X86.062 Y149.885 E30.94397
G1 X85.768 Y150.125 E30.9629
G1 X85.112 Y150.402 E30.99843
G1 X84.572 Y150.485 E31.02569
G1 X75.485 Y150.485 E31.47904
G1 X74.946 Y150.402 E31.50625
G1 X74.391 Y150.186 E31.53596
G1 X74.005 Y149.893 E31.56014
G1 X73.642 Y149.486 E31.58734
G1 X71.483 Y149.485 E31.69506
